actions/22x22-light/view-certificate-export-secret.svg

<svg viewBox="0 0 22 22" xmlns="http://www.w3.org/2000/svg"><path d="m3.567432 4.2c-.314768 0-.567432.269424-.567432.60312v11.593752c0 .333704.252664.603128.567432.603128h14.865128c.314776 0 .56744-.269424.56744-.603128v-11.593752c0-.333696-.252648-.60312-.56744-.60312zm6.148848 3.6c.919504 0 1.662496.787688 1.662496 1.762496s-.742992 1.764064-1.662496 1.764064c-.215184 0-.410504-.04248-.586584-.104688l-.879864.934376h-.588072v.621872h-.5866v.62188h-.978624v-1.037504l2.054544-2.17656c-.05872-.207408-.09728-.416032-.09728-.62344 0-.974808.742992-1.762496 1.66248-1.762496zm4.611632.440624c.762808 0 1.383952.656952 1.383952 1.465624v.596872c.109024.02424.191592.125768.191592.24844v2.232816c0 .14064-.109024.256248-.241696.256248h-2.66764c-.132696 0-.24024-.115608-.24024-.256248v-2.232816c0-.122672.08258-.224288.1916-.24844v-.596872c0-.808672.619664-1.465624 1.382448-1.465624zm-4.122312.181248c-.332584 0-.586584.26928-.586584.621872 0 .3526.254.62344.586584.62344.3326 0 .5866-.27084.5866-.62344 0-.352592-.254-.621872-.5866-.621872zm4.122312.328128c-.497424 0-.901976.428904-.901976.956248v.590624h1.803976v-.590624c0-.52732-.404552-.956248-.902-.956248z" fill="#4d4d4d"/></svg>

<?xml version="1.0" encoding="UTF-8" standalone="no"?>
<svg
   xmlns:dc="http://purl.org/dc/elements/1.1/"
   xmlns:cc="http://creativecommons.org/ns#"
   xmlns:rdf="http://www.w3.org/1999/02/22-rdf-syntax-ns#"
   xmlns:svg="http://www.w3.org/2000/svg"
   xmlns="http://www.w3.org/2000/svg"
   xmlns:sodipodi="http://sodipodi.sourceforge.net/DTD/sodipodi-0.dtd"
   xmlns:inkscape="http://www.inkscape.org/namespaces/inkscape"
   viewBox="0 0 22 22"
   id="svg3313"
   version="1.1"
   inkscape:version="0.91 r13725"
   sodipodi:docname="view-certificate-export-secret.svg">
  <metadata
     id="metadata3321">
    <rdf:RDF>
      <cc:Work
         rdf:about="">
        <dc:format>image/svg+xml</dc:format>
        <dc:type
           rdf:resource="http://purl.org/dc/dcmitype/StillImage" />
      </cc:Work>
    </rdf:RDF>
  </metadata>
  <sodipodi:namedview
     pagecolor="#ffffff"
     bordercolor="#666666"
     borderopacity="1"
     objecttolerance="10"
     gridtolerance="10"
     guidetolerance="10"
     inkscape:pageopacity="0"
     inkscape:pageshadow="2"
     inkscape:window-width="640"
     inkscape:window-height="480"
     id="namedview3319"
     showgrid="false"
     inkscape:zoom="28.954545"
     inkscape:cx="4.8524333"
     inkscape:cy="11"
     inkscape:current-layer="svg3313" />
  <defs
     id="defs3051">
    <style
       type="text/css"
       id="current-color-scheme">
      .ColorScheme-Text {
        color:#4d4d4d
      }
      </style>
  </defs>
  <path
     style="color:#4d4d4d;fill:currentColor;fill-opacity:1;stroke:none"
     class="ColorScheme-Text"
     d="M 3.567432,4.2 C 3.252664,4.2 3,4.469424 3,4.80312 L 3,16.396872 C 3,16.730576 3.252664,17 3.567432,17 L 18.43256,17 C 18.747336,17 19,16.730576 19,16.396872 L 19,4.80312 C 19,4.469424 18.747352,4.2 18.43256,4.2 L 3.567432,4.2 Z M 9.71628,7.8 c 0.919504,0 1.662496,0.787688 1.662496,1.762496 0,0.974808 -0.742992,1.764064 -1.662496,1.764064 -0.215184,0 -0.410504,-0.04248 -0.586584,-0.104688 l -0.879864,0.934376 -0.588072,0 0,0.621872 -0.5866,0 0,0.62188 -0.978624,0 0,-1.037504 2.054544,-2.17656 C 8.09236,9.978528 8.0538,9.769904 8.0538,9.562496 8.0538,8.587688 8.796792,7.8 9.71628,7.8 Z m 4.611632,0.440624 c 0.762808,0 1.383952,0.656952 1.383952,1.465624 l 0,0.596872 c 0.109024,0.02424 0.191592,0.125768 0.191592,0.24844 l 0,2.232816 c 0,0.14064 -0.109024,0.256248 -0.241696,0.256248 l -2.66764,0 c -0.132696,0 -0.24024,-0.115608 -0.24024,-0.256248 l 0,-2.232816 c 0,-0.122672 0.08258,-0.224288 0.1916,-0.24844 l 0,-0.596872 c 0,-0.808672 0.619664,-1.465624 1.382448,-1.465624 z M 10.2056,8.421872 c -0.332584,0 -0.586584,0.26928 -0.586584,0.621872 0,0.3526 0.254,0.62344 0.586584,0.62344 0.3326,0 0.5866,-0.27084 0.5866,-0.62344 0,-0.352592 -0.254,-0.621872 -0.5866,-0.621872 z M 14.327912,8.75 c -0.497424,0 -0.901976,0.428904 -0.901976,0.956248 l 0,0.590624 1.803976,0 0,-0.590624 c 0,-0.52732 -0.404552,-0.956248 -0.902,-0.956248 z"
     id="path3317"
     inkscape:connector-curvature="0" />
</svg>
